libs/shared/images/icons-sharp-light/nfc-lock.svg

<svg xmlns="http://www.w3.org/2000/svg" viewBox="0 0 576 512"><defs><style>.fa-secondary{opacity:.4}</style></defs><path class="fa-secondary" d="M0 32L0 480l320 0 0-64L80 416l-16 0 0-16 0-288 0-16 16 0 64 0 16 0 0 32-16 0-48 0 0 256 224 0 0-96 32 0 0-16 0-144-112 0 0 82.7c18.6 6.6 32 24.4 32 45.3c0 26.5-21.5 48-48 48s-48-21.5-48-48c0-20.9 13.4-38.7 32-45.3l0-98.7 0-16 16 0 144 0 16 0 0 16 0 81.6c16.8-17.1 39.1-28.9 64-32.5L448 32 0 32z"/><path class="fa-primary" d="M432 272l0 48 64 0 0-48c0-17.7-14.3-32-32-32s-32 14.3-32 32zm-48 48l0-48c0-44.2 35.8-80 80-80s80 35.8 80 80l0 48 32 0 0 192-224 0 0-192 32 0z"/></svg>

<svg xmlns="http://www.w3.org/2000/svg" viewBox="0 0 576 512"><path d="M416 64H32V448H320l0 32H32 0V448 64 32H32 416h32V64v97.1c-11.3 1.6-22.1 4.9-32 9.6V64zm-32 48v81.6c-19.8 20.2-32 47.9-32 78.4V128H240v82.7c18.6 6.6 32 24.4 32 45.3c0 26.5-21.5 48-48 48s-48-21.5-48-48c0-20.9 13.4-38.7 32-45.3V112 96h16H368h16v16zM96 384H320l0 32H80 64V400 112 96H80h64 16v32H144 96V384zM224 240a16 16 0 1 0 0 32 16 16 0 1 0 0-32zm240-16c-26.5 0-48 21.5-48 48v48h96V272c0-26.5-21.5-48-48-48zm-80 48c0-44.2 35.8-80 80-80s80 35.8 80 80v48h32v32V480v32H544 384 352V480 352 320h32V272zm160 80H384V480H544V352z"/></svg>
